public/icons/telegram_icon_no_border.svg

<svg width="22" height="19" viewBox="0 0 22 19" fill="none" xmlns="http://www.w3.org/2000/svg">
<path d="M20.7053 0.768351L1.13098 8.45351C0.758585 8.59973 0.745059 9.12176 1.10935 9.28705L5.43669 11.2507C5.55389 11.304 5.64289 11.4045 5.68146 11.5273L7.53806 17.4357C7.63185 17.734 7.99255 17.8497 8.24228 17.6615L11.4739 15.2268C11.6282 15.1106 11.8393 15.1051 11.9995 15.2132L17.4194 18.8696C17.6897 19.052 18.0584 18.8972 18.1176 18.5766L21.3159 1.27195C21.3805 0.922676 21.036 0.638559 20.7053 0.768351ZM8.84379 12.0888L8.25985 15.4083L6.75249 10.6553L17.0868 4.24112L8.84379 12.0888Z" fill="white"/>
</svg>

<svg width="22" height="19" fill="none" xmlns="http://www.w3.org/2000/svg"><path d="M20.705.768 1.131 8.454a.453.453 0 0 0-.022.833l4.328 1.964a.453.453 0 0 1 .244.276l1.857 5.909a.453.453 0 0 0 .704.226l3.232-2.435a.453.453 0 0 1 .525-.014l5.42 3.657c.27.182.64.027.699-.293l3.198-17.305a.453.453 0 0 0-.61-.504ZM8.844 12.088l-.584 3.32-1.508-4.753 10.335-6.414-8.243 7.848Z" fill="#fff"/></svg>
